app/client/src/assets/icons/blueprintjs/20px/folder-new.svg

<?xml version="1.0" encoding="UTF-8"?>
<svg width="20px" height="20px" viewBox="0 0 20 20" version="1.1" xmlns="http://www.w3.org/2000/svg" xmlns:xlink="http://www.w3.org/1999/xlink">
    <!-- Generator: Sketch 49.1 (51147) - http://www.bohemiancoding.com/sketch -->
    <title>Artboard</title>
    <desc>Created with Sketch.</desc>
    <defs></defs>
    <g id="Artboard" stroke="none" stroke-width="1" fill="none" fill-rule="evenodd">
        <path d="M12.9935032,7 C12.9935032,8.6545695 14.3382614,10 15.992004,10 C17.6457466,10 18.9905047,8.6545695 18.9905047,7 L20,7 L20,17 C20,17.55 19.5502249,18 19.0004998,18 L1.00949525,18 C0.459770115,18 0.0099950025,17.55 0.0099950025,17 L0.0099950025,7 L12.9935032,7 Z M10.7601225,6 L0,6 L0,3 C0,2.45 0.449775112,2 0.99950025,2 L4.99750125,2 C5.27736132,2 5.52723638,2.11 5.70714643,2.29 L7.41629185,4 L9.9950025,4 C9.9950025,4.76773528 10.2845348,5.46891156 10.7601225,6 Z M18.9905047,3 C19.5402299,3 19.990005,3.45 19.990005,4 C19.990005,4.55 19.5402299,5 18.9905047,5 L16.9915042,5 L16.9915042,7 C16.9915042,7.55 16.5417291,8 15.992004,8 C15.4422789,8 14.9925037,7.55 14.9925037,7 L14.9925037,5 L12.9935032,5 C12.4437781,5 11.994003,4.55 11.994003,4 C11.994003,3.45 12.4437781,3 12.9935032,3 L14.9925037,3 L14.9925037,1 C14.9925037,0.45 15.4422789,0 15.992004,0 C16.5417291,0 16.9915042,0.45 16.9915042,1 L16.9915042,3 L18.9905047,3 Z" id="Combined-Shape" fill="#000000" fill-rule="nonzero"></path>
    </g>
</svg>

<svg xmlns="http://www.w3.org/2000/svg" width="20" height="20"><path fill-rule="nonzero" d="M12.994 7c0 1.655 1.344 3 2.998 3a3.002 3.002 0 0 0 2.999-3H20v10c0 .55-.45 1-1 1H1.01c-.55 0-1-.45-1-1V7h12.984ZM10.76 6H0V3c0-.55.45-1 1-1h3.998c.28 0 .53.11.71.29L7.415 4h2.579c0 .768.29 1.469.765 2Zm8.23-3c.55 0 1 .45 1 1s-.45 1-1 1h-1.998v2c0 .55-.45 1-1 1s-1-.45-1-1V5h-1.998c-.55 0-1-.45-1-1s.45-1 1-1h1.999V1c0-.55.45-1 .999-1 .55 0 1 .45 1 1v2h1.999Z"/></svg>
